X: 1
T: Lumsden Wing
C: Muriel A Johnstone
B: To Dance To, Volume 1 #37
Z: 2016 John Chambers <jc:trillian.mit.edu>
S: Printed page of unknown origin, at a Boston Branch RSCDS dance.
R: strathspey
M: C
L: 1/8
K: Am
e>d |\
"Am"c<A A>G "F"A>B (3cde | "Dm"f<A d>c "E7"B2 e>d |\
"Am"c<A A>G "F"A>B (3cde | "Dm"f>e f<a "G"g>f "E7/G#"e>d |
"Am"c<A A>G "F"A>B (3cde | "Dm"f<A d>c "E7"B2 E2 |\
"Am"(3ABc "Bdim"(3def "AM/C"ea "Dm"fd | "AM/E"e<E "E7"c>B "Am"A3 G ||
"F"A>G "G7"A>G "C"E<C C>G | "F"A>G "G"A>B "Am"c>B "Em"A<G |\
"Dm"A>G "G7"A>G "C"E<C (3CDE | "Dm"F>E D<C "G"G3 g |
"F"a>g "G7"a>g "C"e<c c>G | "F"A>G "G"A>B "Cm"c>d "Em"e<c |\
"Dm"e<c "G7"A>G "C"E<C "Dm"D<F | "AM/E"E<E "E7"c>B "Am"A2 :|
